dist/img/catalog-brand/cb_icon_3.svg

<svg width="28" height="28" viewBox="0 0 28 28" fill="none" xmlns="http://www.w3.org/2000/svg">
<path d="M2.87786 14.9804C2.69094 13.4984 2.84671 12.0677 3.27042 10.7454C4.67862 6.35072 9.09639 3.11887 14.3366 3.06188V0.189122C14.3366 0.0295246 14.5547 -0.0559741 14.698 0.0409244L21.1596 4.38425C21.2655 4.45835 21.2655 4.60655 21.1596 4.67495L14.7043 9.01828C14.5547 9.11518 14.3429 9.02968 14.3429 8.87008V6.00303C10.8971 6.05433 7.95612 7.998 6.69123 10.7454C6.21144 11.7827 5.96843 12.9284 6.03697 14.1311C6.13044 15.7841 6.80962 17.3059 7.88135 18.5371C8.4546 19.1926 8.31752 20.1502 7.57603 20.6461C6.87193 21.1192 5.88743 20.9881 5.34534 20.3611C4.01814 18.8449 3.13334 16.9981 2.87786 14.9804ZM21.5334 9.46287C22.6114 10.6884 23.2906 12.2159 23.3778 13.8689C23.4464 15.0773 23.1971 16.223 22.7236 17.2546C21.4587 20.002 18.5176 21.9514 15.0719 21.997V19.1299C15.0719 18.9703 14.8538 18.8848 14.7105 18.9817L8.24898 23.325C8.14305 23.3991 8.14305 23.5473 8.24898 23.6157L14.7043 27.9591C14.8538 28.056 15.0657 27.9705 15.0657 27.8109V24.9381C20.3059 24.8868 24.7299 21.655 26.1319 17.2546C26.5556 15.9323 26.7052 14.5016 26.5245 13.0196C26.2752 11.0018 25.3904 9.15508 24.0632 7.6389C23.5149 7.01191 22.5366 6.88082 21.8325 7.35391C21.0973 7.8498 20.9602 8.80738 21.5334 9.46287Z" fill="#FC00FF"/>
</svg>

<svg width="28" height="28" viewBox="0 0 28 28" fill="none" xmlns="http://www.w3.org/2000/svg"><path d="M2.878 14.98a9.796 9.796 0 01.392-4.235C4.68 6.351 9.096 3.12 14.337 3.062V.189c0-.16.218-.245.361-.148l6.462 4.343c.105.074.105.223 0 .29l-6.456 4.344c-.15.097-.361.012-.361-.148V6.003c-3.446.051-6.387 1.995-7.652 4.742a7.063 7.063 0 00-.654 3.386c.093 1.653.773 3.175 1.844 4.406.574.656.437 1.613-.305 2.11-.704.472-1.689.341-2.23-.286-1.328-1.516-2.213-3.363-2.468-5.38zm18.655-5.517c1.078 1.225 1.758 2.753 1.845 4.406a7.11 7.11 0 01-.654 3.386c-1.265 2.747-4.206 4.696-7.652 4.742V19.13c0-.16-.218-.245-.361-.148l-6.462 4.343c-.106.074-.106.222 0 .29l6.455 4.344c.15.097.362.012.362-.148v-2.873c5.24-.051 9.664-3.283 11.066-7.683a9.892 9.892 0 00.392-4.235c-.249-2.018-1.134-3.865-2.46-5.381a1.726 1.726 0 00-2.232-.285c-.735.496-.872 1.453-.299 2.109z" fill="#FC00FF"/></svg>
